src/assets/images/visa.svg

<svg height="17" viewBox="0 0 49 17" width="49" xmlns="http://www.w3.org/2000/svg"><path d="m31.9004005.40816929c1.5254112 0 2.751371.34580539 3.5268737.66189312l-.5323583 3.40402176-.3531993-.1810075c-.7268738-.31878934-1.6585008-.62407066-2.9458865-.60245782-1.5407677 0-2.2548445.69971558-2.2548445 1.35080228-.0076782.73753805.8343693 1.21842366 2.2087751 1.9478569 2.2727604 1.11846429 3.3246799 2.47737139 3.306764 4.26583357-.030713 3.2608368-2.7180986 5.3626851-6.8515536 5.3626851-1.7685557-.0189112-3.4680072-.3971359-4.3868371-.8347958l.5502742-3.5147875.5067642.2512492c1.2925045.5835466 2.1319925.8212878 3.7060327.8212878 1.1312613 0 2.3469834-.4808856 2.357221-1.5345114.0051189-.6862076-.5093235-1.1778996-2.0449724-1.94785692-1.4895795-.74834446-3.4705666-2.00729219-3.4449724-4.26583362.0230347-3.05281316 2.7616086-5.18437917 6.6519192-5.18437917zm13.6263247.2917733 3.1864715 15.69362091h-3.6548444s-.3608775-1.8046718-.4786106-2.3530975l-.1902215-.000182c-.0408254-.0000591-.085946-.0001316-.1349633-.0002165l-.3376747-.0006468c-.9451436-.0019367-2.5876789-.0060869-3.5824607-.0083003l-.3601773-.0007722c-.053209-.0001082-.1027418-.0002054-.1482001-.0002902l-.2883497-.0003985c-.1535649.4268536-.826691 2.3612024-.826691 2.363904h-4.1360144l5.8457036-14.39414912c.4146252-1.02120652 1.1210237-1.29947179 2.0628883-1.29947179zm-21.91371-.01620963-2.4621571 15.70172574h-3.9363801l2.4647166-15.70172574zm-17.13016365.0027016c.85484456.03512086 1.54588657.32959576 1.78391215 1.32648785l1.37952461 7.2132842.41462519 2.17479169 3.8519194-10.70375732h4.1718462l-6.2014622 15.67200812-4.16416798.0054032-3.49888699-13.63934376c-1.21012927-.72934185-2.59114532-1.31561732-4.13584753-1.72197982l.0511883-.32689416zm36.27714615 4.24692239c-.0369515.10992154-.0792119.23266514-.1233393.35929098l-.0897245.25577916c-.1653197.46870597-.3248932.90947909-.3090568.88161879 0 0-1.2413162 3.4877715-1.5663619 4.39010742h3.2658134c-.0158861-.0813276-.038236-.1943421-.0655426-.3316171l-.0607753-.3046972c-.2659634-1.33057589-.7848338-3.89697816-.7848338-3.89697816z" fill="#9f9f9f" fill-rule="evenodd"/></svg>

<?xml version="1.0" encoding="UTF-8"?>
<svg width="49px" height="17px" viewBox="0 0 49 17" version="1.1" xmlns="http://www.w3.org/2000/svg" xmlns:xlink="http://www.w3.org/1999/xlink">
    <title>ps-visa-ondark</title>
    <g id="Design" stroke="none" stroke-width="1" fill="none" fill-rule="evenodd">
        <g id="О-НАС---компания" transform="translate(-454.000000, -1790.000000)" fill="#9F9F9F">
            <g id="Group-54" transform="translate(0.000000, 1552.000000)">
                <g id="Group-4" transform="translate(454.000000, 235.000000)">
                    <g id="visa_logo" transform="translate(0.000000, 3.000000)">
                        <path d="M31.9004005,0.408169292 C33.4258117,0.408169292 34.6517715,0.753974678 35.4272742,1.07006241 L35.4272742,1.07006241 L34.8949159,4.47408417 L34.5417166,4.29307667 C33.8148428,3.97428733 32.8832158,3.66900601 31.5958301,3.69061885 C30.0550624,3.69061885 29.3409856,4.39033443 29.3409856,5.04142113 C29.3333074,5.77895918 30.1753549,6.25984479 31.5497607,6.98927803 C33.8225211,8.10774232 34.8744406,9.46664942 34.8565247,11.2551116 C34.8258117,14.5159484 32.1384261,16.6177967 28.0049711,16.6177967 C26.2364154,16.5988855 24.5369639,16.2206608 23.618134,15.7830009 L23.618134,15.7830009 L24.1684082,12.2682134 L24.6751724,12.5194626 C25.9676769,13.1030092 26.8071649,13.3407504 28.3812051,13.3407504 C29.5124664,13.3407504 30.7281885,12.8598648 30.7384261,11.806239 C30.743545,11.1200314 30.2291026,10.6283394 28.6934537,9.85838208 C27.2038742,9.11003762 25.2228871,7.85108989 25.2484813,5.59254846 C25.271516,2.5397353 28.0100899,0.408169292 31.9004005,0.408169292 Z M45.5267252,0.699942586 L48.7131967,16.3935635 L45.0583523,16.3935635 C45.0583523,16.3935635 44.6974748,14.5888917 44.5797417,14.040466 L44.5797417,14.040466 L44.3895202,14.040284 C44.3486948,14.0402249 44.3035742,14.0401524 44.2545569,14.0400675 L43.9168822,14.0394207 C42.9717386,14.037484 41.3292033,14.0333338 40.3344215,14.0311204 L39.9742442,14.0303482 C39.9210352,14.03024 39.8715024,14.0301428 39.8260441,14.030058 L39.5376944,14.0296595 C39.3841295,14.4565131 38.7110034,16.3908619 38.7110034,16.3935635 L38.7110034,16.3935635 L34.574989,16.3935635 L40.4206926,1.99941438 C40.8353178,0.978207857 41.5417163,0.699942586 42.4835809,0.699942586 L42.4835809,0.699942586 L45.5267252,0.699942586 Z M23.6130152,0.683732959 L21.1508581,16.3854587 L17.214478,16.3854587 L19.6791946,0.683732959 L23.6130152,0.683732959 Z M6.48285155,0.686434563 C7.33769611,0.721555423 8.02873812,1.01603032 8.2667637,2.01292241 L8.2667637,2.01292241 L9.64628831,9.22620661 L10.0609135,11.4009983 L13.9128329,0.697240982 L18.0846791,0.697240982 L11.8832169,16.3692491 L7.71904892,16.3746523 L4.22016193,2.73530854 C3.01003266,2.00596669 1.62901661,1.41969122 0.0843144046,1.01332872 L0.0843144046,1.01332872 L0.135502702,0.686434563 Z M42.7599977,4.93335695 C42.7230462,5.04327849 42.6807858,5.16602209 42.6366584,5.29264793 L42.5469339,5.54842709 C42.3816142,6.01713306 42.2220407,6.45790618 42.2378771,6.43004588 C42.2378771,6.43004588 40.9965609,9.91781738 40.6715152,10.8201533 L40.6715152,10.8201533 L43.9373286,10.8201533 C43.9214425,10.7388257 43.8990926,10.6258112 43.871786,10.4885362 L43.8110107,10.183839 C43.5450473,8.85326311 43.0261769,6.28686084 43.0261769,6.28686084 L43.0261769,6.28686084 Z" id="Combined-Shape"></path>
                    </g>
                </g>
            </g>
        </g>
    </g>
</svg>
